src/components/ProtocolIcon/gnosis.svg

<svg width="16" height="16" viewBox="0 0 16 16" fill="none" xmlns="http://www.w3.org/2000/svg">
<path fill-rule="evenodd" clip-rule="evenodd" d="M8.00364 0C10.2816 0 12.3392 0.95522 13.7905 2.4799C13.9926 2.68198 14.1824 2.90852 14.3417 3.12897L7.99752 9.47874L1.65336 3.13509C1.83097 2.90855 2.02079 2.6881 2.21673 2.4799C3.67419 0.95522 5.72561 0 8.00364 0ZM12.9209 3.07999C11.6166 1.76349 9.87749 1.04095 8.00364 1.04095C6.1298 1.04095 4.39678 1.76349 3.0863 3.07999L8.00364 7.99694L12.9209 3.07999ZM14.85 3.85765L13.5579 5.14967C13.9865 5.664 14.2437 6.31307 14.2437 7.03563C14.2437 8.65826 12.9271 9.97476 11.3043 9.97476C10.5879 9.97476 9.93263 9.71758 9.41826 9.28896L8.00367 10.7034L6.58909 9.28896C6.07472 9.71758 5.4256 9.97476 4.70301 9.97476C3.08021 9.97476 1.76362 8.65826 1.76362 7.03563C1.76362 6.31919 2.02083 5.664 2.44949 5.14967L1.78813 4.48836L1.15738 3.85765C0.422545 5.07006 0 6.48454 0 8.0031C0 12.4241 3.58235 16 7.99755 16C12.4127 16 15.9951 12.4179 15.9951 8.0031C16.0073 6.47842 15.5848 5.06393 14.85 3.85765ZM12.9455 5.74971C13.2211 6.10487 13.3803 6.54574 13.3803 7.02333C13.3803 8.17452 12.4495 9.10522 11.3043 9.0991C10.8206 9.0991 10.3797 8.9399 10.0306 8.66436L12.9455 5.74971ZM5.98288 8.67052C5.62769 8.94607 5.18679 9.10526 4.70916 9.10526C3.55791 9.10526 2.6271 8.17453 2.63322 7.0295C2.63322 6.54575 2.79244 6.10488 3.06801 5.75584L5.98288 8.67052Z" fill="#fff"/>
</svg>

<svg xmlns="http://www.w3.org/2000/svg" width="16" height="16" fill="none"><path fill="#fff" fill-rule="evenodd" d="M8.004 0c2.278 0 4.335.955 5.787 2.48.202.202.391.429.55.649l-6.343 6.35-6.345-6.344a10 10 0 0 1 .564-.655A7.98 7.98 0 0 1 8.004 0m4.917 3.08a6.86 6.86 0 0 0-4.917-2.039A6.87 6.87 0 0 0 3.086 3.08l4.918 4.917zm1.929.778L13.558 5.15a2.94 2.94 0 0 1-4.14 4.14l-1.414 1.413L6.589 9.29a2.94 2.94 0 0 1-4.14-4.14l-.66-.66-.632-.631A7.995 7.995 0 0 0 7.997 16a8 8 0 0 0 7.998-7.997 7.8 7.8 0 0 0-1.145-4.145M12.945 5.75c.276.355.435.796.435 1.273A2.07 2.07 0 0 1 11.304 9.1a2.04 2.04 0 0 1-1.273-.435zM5.983 8.67a2.07 2.07 0 0 1-1.274.435A2.07 2.07 0 0 1 2.633 7.03c0-.483.16-.924.435-1.273z" clip-rule="evenodd"/></svg>
